build/system/UserDeleteSolid.svg

<svg xmlns="http://www.w3.org/2000/svg" fill="none" viewBox="0 0 24 24" focusable="false"><path d="M0 0H24V24H0z"/><path fill="#74767B" fill-rule="evenodd" d="M12 3C9.33497 3 7.26365 5.32002 7.56456 7.96802L7.8266 10.274C8.06781 12.3966 9.86377 14 12 14C14.1363 14 15.9322 12.3966 16.1734 10.274L16.4355 7.96803C16.7364 5.32002 14.6651 3 12 3ZM20.682 20.6819C22.4393 18.9246 22.4393 16.0753 20.682 14.318C18.9246 12.5606 16.0754 12.5606 14.318 14.318C12.5607 16.0753 12.5607 18.9246 14.318 20.6819C16.0754 22.4393 18.9246 22.4393 20.682 20.6819ZM11.1541 15C11.6692 15 12.0139 15.5434 11.8848 16.042C11.7642 16.5078 11.7 16.9964 11.7 17.5C11.7 18.3115 11.8667 19.0841 12.1677 19.7854C12.3958 20.317 12.0443 21 11.4658 21L4.87265 21C4.42482 21 4.09217 20.5853 4.18932 20.1481L4.28926 19.6984C4.89931 16.9532 7.33419 15 10.1464 15L11.1541 15ZM15.6212 15.6212C15.8751 15.3674 16.2866 15.3674 16.5405 15.6212L17.5 16.5807L18.3638 15.7169C18.6177 15.4631 19.0292 15.4631 19.2831 15.7169C19.5369 15.9708 19.5369 16.3823 19.2831 16.6362L18.4193 17.5L19.3788 18.4595C19.6327 18.7134 19.6327 19.1249 19.3788 19.3788C19.125 19.6326 18.7134 19.6326 18.4596 19.3788L17.5 18.4192L16.6362 19.283C16.3824 19.5369 15.9708 19.5369 15.717 19.283C15.4631 19.0292 15.4631 18.6176 15.717 18.3638L16.5808 17.5L15.6212 16.5404C15.3674 16.2866 15.3674 15.875 15.6212 15.6212Z"/></svg>

<svg xmlns="http://www.w3.org/2000/svg" fill="none" viewBox="0 0 24 24" focusable="false"><path fill="#74767B" fill-rule="evenodd" d="M7.56 7.96C7.26 5.32 9.33 3 12 3a4.46 4.46 0 0 1 4.43 4.96l-.26 2.31A4.206 4.206 0 0 1 12 14c-2.14 0-3.94-1.61-4.18-3.73zm13.12 12.72a4.52 4.52 0 0 0 0-6.37 4.52 4.52 0 0 0-6.37 0 4.52 4.52 0 0 0 0 6.37 4.52 4.52 0 0 0 6.37 0M11.15 15c.51 0 .86.54.73 1.04-.12.46-.18.95-.18 1.46 0 .81.16 1.58.46 2.28.23.53-.12 1.22-.7 1.22H4.87c-.45 0-.78-.42-.69-.86l.1-.45A6 6 0 0 1 10.14 15zm4.47.62a.64.64 0 0 1 .92 0l.96.96.86-.87c.25-.25.66-.25.92 0 .25.26.25.67 0 .92l-.87.87.96.95c.26.26.26.67 0 .92a.64.64 0 0 1-.92 0l-.95-.96-.87.87c-.25.25-.66.25-.92 0a.66.66 0 0 1 0-.92l.87-.86-.96-.96a.64.64 0 0 1 0-.92"/></svg>
